X: 1
T: Orleans Baffled [Bb]
O: Playford 1721
M: 3/2
L: 1/4
B: The Round Band Book of Playford
B: Barnes "English Country Dace Tunes" p.93
K: Bb
[|"Bb"B2 f2 d2 | "Eb"eg2 G "F7"AF \
| "Bb"BA/B/ "F7"cB/c/ "Bb"dc/d/ | "Eb"ed/e/ "F7"cf "Bb"dB |
| "F"F2 c2 A2 | "Bb"Bd2 D "C7"=EC \
| "F"F=E/F/ "C7"GF/G/ "F"AG/A/ | "Bb"BA/B/ "C7"Gc "F"AF |
| "Bb"FB "B7"B_A "Eb"GE | "C"Gc "C7"cB "F"AF \
| "Bb"BA/B/ "F7"cF "Bb"dF | "Eb"eG "F7"cA "Bb"B2 |]
%%sep 1 1 500
